public/7.svg

<svg width="70" height="111" viewBox="0 0 70 111" fill="none" xmlns="http://www.w3.org/2000/svg">
<g clip-path="url(#clip0_9_84486)">
<path d="M69.0172 42.7305V84.218L35 104.966V63.4747L69.0172 42.7305Z" fill="#005BEA"/>
<path d="M69.0169 42.729L34.9996 63.4706L0.982422 42.729L34.9996 21.9805L69.0169 42.729Z" fill="white"/>
<path d="M34.9996 63.4707V104.962L0.982422 84.2141V42.7266L34.9996 63.4707Z" fill="white"/>
<path d="M34.9976 105.997C34.8242 105.996 34.6544 105.948 34.5067 105.858C34.3547 105.762 34.2298 105.629 34.1439 105.472C34.058 105.314 34.0138 105.138 34.0157 104.959V63.4669C34.0138 63.2878 34.058 63.1112 34.1439 62.9538C34.2298 62.7965 34.3547 62.6635 34.5067 62.5677L68.5238 41.8261C68.6716 41.7355 68.8417 41.6875 69.0152 41.6875C69.1887 41.6875 69.3588 41.7355 69.5066 41.8261C69.6586 41.9218 69.7835 42.0547 69.8694 42.2121C69.9554 42.3695 69.9995 42.5462 69.9976 42.7253V84.2137C69.9995 84.3927 69.9555 84.5692 69.8695 84.7265C69.7836 84.8837 69.6586 85.0164 69.5066 85.1119L35.4894 105.86C35.3412 105.95 35.1711 105.997 34.9976 105.997ZM35.9813 64.0672V103.161L68.0328 83.6142V44.5235L35.9813 64.0672Z" fill="#005BEA"/>
<path d="M34.9992 105.999C34.8257 105.999 34.6557 105.951 34.5082 105.86L0.491033 85.1118C0.339097 85.0163 0.21423 84.8836 0.128292 84.7264C0.0423532 84.5691 -0.0017973 84.3926 5.60326e-05 84.2136V42.7252C-0.00178065 42.5461 0.0423615 42.3694 0.128292 42.2121C0.214222 42.0547 0.339086 41.9219 0.491033 41.8261C0.638801 41.7355 0.808906 41.6875 0.982428 41.6875C1.15595 41.6875 1.32606 41.7355 1.47382 41.8261L35.491 62.5677C35.72 62.7148 35.8845 62.943 35.9513 63.2063C36.0181 63.4695 35.9822 63.7481 35.8509 63.986C35.7913 64.1022 35.7083 64.205 35.6071 64.2878C35.5059 64.3707 35.3886 64.4318 35.2626 64.4674C35.1366 64.5031 35.0046 64.5125 34.8748 64.4951C34.745 64.4776 34.6202 64.4336 34.5082 64.3659L1.96569 44.5225V83.6133L35.491 104.06C35.72 104.207 35.8845 104.435 35.9513 104.698C36.0181 104.961 35.9822 105.24 35.8509 105.478C35.7695 105.633 35.6474 105.764 35.4974 105.856C35.3474 105.948 35.1752 105.997 34.9992 105.999Z" fill="#005BEA"/>
<path d="M69.0165 43.7655C68.843 43.7657 68.673 43.7175 68.5255 43.6264L34.9993 23.1811L1.4739 43.6264C1.36191 43.6941 1.23715 43.7381 1.10734 43.7555C0.97754 43.773 0.845502 43.7636 0.7195 43.7279C0.593499 43.6922 0.476227 43.6312 0.375011 43.5483C0.273795 43.4655 0.190825 43.3627 0.131249 43.2465C-1.07447e-05 43.0087 -0.0359064 42.7301 0.0308881 42.467C0.0976826 42.204 0.262178 41.976 0.491114 41.8291L34.5083 21.0806C34.6559 20.9895 34.8261 20.9414 34.9997 20.9414C35.1733 20.9414 35.3435 20.9895 35.4911 21.0806L69.5083 41.8291C69.7371 41.9761 69.9014 42.2042 69.968 42.4673C70.0346 42.7303 69.9986 43.0088 69.8673 43.2465C69.7857 43.4015 69.6636 43.5316 69.5137 43.6231C69.3639 43.7145 69.1921 43.7636 69.0165 43.7655Z" fill="#005BEA"/>
<path d="M47.8376 69.3557C50.3611 64.739 54.4531 62.2444 56.9762 63.7828C59.4994 65.3212 59.4997 70.3122 56.9763 74.9288C54.4528 79.5455 50.3611 82.0413 47.8368 80.5032C45.3125 78.9651 45.3138 73.9731 47.8376 69.3557Z" fill="white"/>
<path d="M49.5185 82.0015C48.7524 82.0083 47.9997 81.8013 47.3455 81.4038C45.8075 80.4646 44.9609 78.5784 44.9609 76.0861C44.9609 71.3301 48.0148 65.7425 51.9135 63.3637C53.9571 62.1188 55.9295 61.9498 57.4667 62.8865C59.0039 63.8231 59.8505 65.7119 59.8505 68.2042C59.8505 72.9602 56.795 78.5476 52.8963 80.9265C51.8908 81.587 50.7221 81.959 49.5185 82.0015ZM55.2878 64.367C54.4334 64.4115 53.6071 64.6861 52.8971 65.1619C49.6051 67.1701 46.9265 72.0704 46.9265 76.0861C46.9265 77.8048 47.4243 79.054 48.3283 79.6064C49.2323 80.1588 50.5056 79.9872 51.9143 79.1291C55.2072 77.12 57.8857 72.2199 57.8857 68.2051C57.8857 66.4863 57.3879 65.2362 56.4848 64.6855C56.1238 64.4698 55.7094 64.3592 55.2886 64.3661L55.2878 64.367Z" fill="#005BEA"/>
<path d="M34.9989 48.6344C46.1023 48.6344 55.1034 39.1271 55.1034 27.3992C55.1034 15.6714 46.1023 6.16406 34.9989 6.16406C23.8956 6.16406 14.8945 15.6714 14.8945 27.3992C14.8945 39.1271 23.8956 48.6344 34.9989 48.6344Z" fill="white"/>
<path d="M34.9985 49.6709C23.371 49.6709 13.9121 39.681 13.9121 27.3984C13.9121 15.1158 23.371 5.125 34.9985 5.125C46.626 5.125 56.0857 15.1149 56.0857 27.3984C56.0857 39.6818 46.6269 49.6709 34.9985 49.6709ZM34.9985 7.20062C24.4592 7.20062 15.8777 16.2608 15.8777 27.3984C15.8777 38.5359 24.4557 47.5953 34.9985 47.5953C45.5412 47.5953 54.1218 38.5342 54.1218 27.3984C54.1218 16.2625 45.5421 7.20062 34.9985 7.20062Z" fill="white"/>
<path d="M34.9989 6.16406C46.1021 6.16406 55.1025 15.6716 55.1025 27.3992C55.1025 39.1268 46.1055 48.6344 34.9981 48.6344C23.8907 48.6344 14.8945 39.1268 14.8945 27.3992C14.8945 15.6716 23.8915 6.16406 34.9989 6.16406Z" fill="#CEE7FD"/>
<path d="M34.9985 49.6709C23.371 49.6709 13.9121 39.681 13.9121 27.3984C13.9121 15.1158 23.371 5.125 34.9985 5.125C46.626 5.125 56.0857 15.1149 56.0857 27.3984C56.0857 39.6818 46.6269 49.6709 34.9985 49.6709ZM34.9985 7.20062C24.4592 7.20062 15.8777 16.2608 15.8777 27.3984C15.8777 38.5359 24.4557 47.5953 34.9985 47.5953C45.5412 47.5953 54.1218 38.5342 54.1218 27.3984C54.1218 16.2625 45.5421 7.20062 34.9985 7.20062Z" fill="#005BEA"/>
</g>
<defs>
<clipPath id="clip0_9_84486">
<rect width="70" height="111" fill="white"/>
</clipPath>
</defs>
</svg>

<svg xmlns="http://www.w3.org/2000/svg" width="70" height="111" fill="none" viewBox="0 0 70 111"><g clip-path="url(#a)"><path fill="#005bea" d="M69.017 42.73v41.488L35 104.966V63.475z"/><path fill="#fff" d="M69.017 42.729 35 63.471.982 42.729 35 21.981z"/><path fill="#fff" d="M35 63.47v41.492L.982 84.214V42.727z"/><path fill="#005bea" d="M34.998 105.997a.95.95 0 0 1-.491-.139 1.06 1.06 0 0 1-.491-.899V63.467a1.05 1.05 0 0 1 .49-.9l34.018-20.74a.94.94 0 0 1 .983 0 1.05 1.05 0 0 1 .49.898v41.489a1.05 1.05 0 0 1-.49.898L35.489 105.86a.95.95 0 0 1-.491.137m.983-41.93v39.094l32.052-19.547v-39.09z"/><path fill="#005bea" d="M35 105.999a.94.94 0 0 1-.492-.139L.491 85.112a1.05 1.05 0 0 1-.49-.898V42.725a1.05 1.05 0 0 1 .49-.899.94.94 0 0 1 .983 0L35.49 62.568a1.073 1.073 0 0 1 .116 1.72.95.95 0 0 1-1.099.078L1.966 44.523v39.09L35.49 104.06a1.07 1.07 0 0 1 .36 1.418.98.98 0 0 1-.852.521"/><path fill="#005bea" d="M69.017 43.766a.93.93 0 0 1-.492-.14L35 23.181 1.474 43.626a.953.953 0 0 1-1.343-.38 1.07 1.07 0 0 1 .36-1.417l34.017-20.748a.94.94 0 0 1 .983 0l34.017 20.748a1.07 1.07 0 0 1 .36 1.417.97.97 0 0 1-.852.52"/><path fill="#fff" d="M47.838 69.356c2.523-4.617 6.615-7.112 9.138-5.573s2.524 6.53 0 11.146-6.615 7.112-9.14 5.574c-2.523-1.538-2.522-6.53.002-11.147"/><path fill="#005bea" d="M49.519 82.002a4.1 4.1 0 0 1-2.173-.598c-1.538-.94-2.385-2.826-2.385-5.318 0-4.756 3.054-10.343 6.953-12.722 2.043-1.245 4.015-1.414 5.553-.477 1.537.936 2.383 2.825 2.383 5.317 0 4.756-3.055 10.344-6.954 12.723A6.6 6.6 0 0 1 49.52 82m5.769-17.635c-.855.044-1.68.32-2.39.795-3.293 2.008-5.972 6.908-5.972 10.924 0 1.719.498 2.968 1.402 3.52.904.553 2.178.381 3.586-.477 3.293-2.009 5.972-6.91 5.972-10.924 0-1.719-.498-2.969-1.401-3.52a2.26 2.26 0 0 0-1.196-.319z"/><path fill="#fff" d="M34.999 48.634c11.103 0 20.104-9.507 20.104-21.235S46.103 6.164 35 6.164 14.895 15.671 14.895 27.4s9 21.235 20.104 21.235"/><path fill="#fff" d="M34.999 49.67c-11.628 0-21.087-9.989-21.087-22.272S23.371 5.125 35 5.125s21.087 9.99 21.087 22.273c0 12.284-9.46 22.273-21.087 22.273m0-42.47c-10.54 0-19.121 9.06-19.121 20.198s8.578 20.197 19.12 20.197 19.124-9.06 19.124-20.197c0-11.135-8.58-20.197-19.123-20.197"/><path fill="#cee7fd" d="M34.999 6.164c11.103 0 20.103 9.508 20.103 21.235s-8.996 21.235-20.104 21.235S14.895 39.127 14.895 27.4 23.892 6.164 34.999 6.164"/><path fill="#005bea" d="M34.999 49.67c-11.628 0-21.087-9.989-21.087-22.272S23.371 5.125 35 5.125s21.087 9.99 21.087 22.273c0 12.284-9.46 22.273-21.087 22.273m0-42.47c-10.54 0-19.121 9.06-19.121 20.198s8.578 20.197 19.12 20.197 19.124-9.06 19.124-20.197c0-11.135-8.58-20.197-19.123-20.197"/></g><defs><clipPath id="a"><path fill="#fff" d="M0 0h70v111H0z"/></clipPath></defs></svg>
